!!!OTL: Fuqi shuangshuang qu hui men
!!!ARE: Asia, China,ÿJiangxi, Yujiang
!! IV, 252
!!!SCT: C1687
!!!YEM: Copyright 1995, estate of Helmut Schaffrath.
**kern
*ICvox
*Ivox
*M2/4
*k[f#c#g#d#]
*E:
{16ee
16ee
16ee
16ee
16ff#
16ee
8cc#
=1
16b
16g#
4b
8ee
=2
16cc#
16ee
16cc#
16b
4g#}
=3
{16g#
16b
16cc#
16ee
16cc#
16b
8g#
=4
8f#
4f#
16g#
16f#
=5
8e
16c#
16e
8f#
8f#}
=6
{8.f#
16g#
8b
8b
=7
8ee
16ee
16ff#
16cc#
16b
8g#
=8
8b
16cc#
16b
4g#
=9
16f#
16g#
16f#
16e
4c#}
=10
{16ee
16ee
16ee
16ee
16ff#
16ee
8cc#
=11
16b
16g#
4b
16g#
16f#
=12
8e
16c#
16e
8f#
8f#}
=13
{8.ee
16cc#
4b
=14
16g#
16b
16cc#
16ee
4b}
==
!!!AGN: Wuge, Chelideng
!!!AMT: simple duple
!!!AIN: vox
!!!EED: Helmut Schaffrath
!!!EEV: 1.0
*-
